src/lib/packages/icons/src/assets/filled/radar.svg

<svg width="24" height="24" viewBox="0 0 24 24" fill="none" xmlns="http://www.w3.org/2000/svg">
<path d="M21 12C21 16.97 16.97 21 12 21C7.03 21 3 16.97 3 12C3 9.79 3.80597 7.75809 5.13397 6.19409L4.46997 5.53003C4.17697 5.23703 4.17697 4.76199 4.46997 4.46899C4.76297 4.17599 5.23801 4.17599 5.53101 4.46899L12.531 11.469C12.824 11.762 12.824 12.237 12.531 12.53C12.385 12.676 12.193 12.75 12.001 12.75C11.809 12.75 11.617 12.677 11.471 12.53L10.175 11.2339C10.076 11.4689 10.022 11.727 10.022 12C10.022 13.1 10.922 14 12.022 14C13.122 14 14.022 13.1 14.022 12C14.022 10.9 13.122 10 12.022 10H12V7.25C14.62 7.25 16.75 9.38 16.75 12C16.75 13.27 16.26 14.4601 15.37 15.3601C14.46 16.2601 13.27 16.75 12 16.75C9.38 16.75 7.25 14.62 7.25 12C7.25 10.992 7.57599 10.0309 8.16199 9.2229L7.08197 8.14307C6.22097 9.24507 5.75 10.588 5.75 12C5.75 15.446 8.554 18.25 12 18.25C13.663 18.25 15.233 17.6029 16.427 16.4209C17.602 15.2329 18.25 13.662 18.25 12C18.25 8.554 15.446 5.75 12 5.75V3C16.97 3 21 7.03 21 12Z" fill="currentColor"/>
</svg>

<svg xmlns="http://www.w3.org/2000/svg" width="24" height="24" fill="none"><path fill="currentColor" d="M21 12a9 9 0 0 1-18 0c0-2.21.806-4.242 2.134-5.806L4.47 5.53a.75.75 0 1 1 1.061-1.061l7 7a.75.75 0 0 1-1.06 1.061l-1.296-1.296a1.965 1.965 0 0 0-.153.766c0 1.1.9 2 2 2s2-.9 2-2-.9-2-2-2H12V7.25c2.62 0 4.75 2.13 4.75 4.75 0 1.27-.49 2.46-1.38 3.36-.91.9-2.1 1.39-3.37 1.39-2.62 0-4.75-2.13-4.75-4.75 0-1.008.326-1.97.912-2.777l-1.08-1.08A6.237 6.237 0 0 0 5.75 12a6.257 6.257 0 0 0 10.677 4.42A6.257 6.257 0 0 0 12 5.75V3a9 9 0 0 1 9 9Z"/></svg>
